X:212 
T:Tonra's Jig 
B:CRE3.020 (Port UÃÂÃÂÃÂÃÂ­ Thomhnra)
F:file ID: cre.3/212tonra
R:jig
Q:160
M:6/8
L:1/8
K:D
E|F3 AFE|EDB, A,B,/D/E|FEF GFG|G/A/BF AFE|
F2F AFE|EDB, A,B,/D/E|FEF GFG|1 BAF D2:|2 BAF d||
|:de|f2d dcd|edc Bcd|f2d dcd|AdF Ade|
f2d dcd|edc Bcd|faf gec|1 dAF D:|2 dec Hd3 |]

%%%

